certificate.svg

<svg fill="currentColor" viewBox="0 0 24 24"><path d="M4 3c-1.11 0-2 .89-2 2v10a2 2 0 0 0 2 2h8v5l3-3 3 3v-5h2a2 2 0 0 0 2-2V5a2 2 0 0 0-2-2H4m8 2 3 2 3-2v3.5l3 1.5-3 1.5V15l-3-2-3 2v-3.5L9 10l3-1.5zM4 5h5v2H4zm0 4h3v2H4zm0 4h5v2H4z"/></svg>

<svg  viewBox="0 0 24 24" fill="currentColor"><path  d="M4,3C2.89,3 2,3.89 2,5V15A2,2 0 0,0 4,17H12V22L15,19L18,22V17H20A2,2 0 0,0 22,15V8L22,6V5A2,2 0 0,0 20,3H16V3H4M12,5L15,7L18,5V8.5L21,10L18,11.5V15L15,13L12,15V11.5L9,10L12,8.5V5M4,5H9V7H4V5M4,9H7V11H4V9M4,13H9V15H4V13Z"/></svg>
